X:29
T:Ally Croaker. AJH.029
T:Crocker’s Reel,aka. AJH.028
M:4/4
L:1/8
Q:1/2=120
S:A.J.Hughes MS
O:England
A:North Shropshire
D:version recorded on John Kirkpatrick & Sue Harris’s album “Facing the Music”
D:(1980 Topic Records) as “Crocker’s (or Betty Crocker’s???) reel.
Z:Neil Brookes 2006
K:D
dddd d2d2|edcd efge|fddd d2d2|edcd ef g2:|!
|:faaa a2a2|bagf ef g2|eggg g2g2|agfe fg a2|!
dddd cccc|BBBB A2A2|gggg f2b2|agfe d2d2:|

